packages/static-svg/icons/speedai-color.svg

<svg height="1em" style="flex:none;line-height:1" viewBox="0 0 24 24" width="1em" xmlns="http://www.w3.org/2000/svg"><title>SpeedAI</title><path d="M16.172 0c.05.024.05.024.081.062.022.097.016.196.014.294-.002.181.005.356.05.534l.01.033c.123.496.422.966.874 1.335a2.028 2.028 0 00.385.288c.05.033.054.054.061.104-.008.06-.03.077-.087.12-.05.019-.107.013-.163.012l-.082-.001h-.043a5.16 5.16 0 00-.777.038l-.045.007c-.353.052-.818.129-1.085.327l-.025.018a.565.565 0 00-.148.183 3.76 3.76 0 00-.16.281l-.053.096-.055.104-.21.388-.063.114c-.067.125-.136.25-.206.374l.036.004c.112.014.223.03.333.049l.05.009.165.027.12.02.256.044.412.069.07.012.108.018.22.037 1.246.208.15.025.037.007.552.092.036.006.316.053.702.117.34.056.18.03c.4.065.713.145 1.014.366l.033.022c.27.191.424.487.441.765l.001.074.001.033c-.003.192-.079.379-.144.563l-.027.075-.056.159-.133.381-.046.129c-.085.243-.168.486-.25.729l-.094.271-.01.03-.235.681-.01.03-.086.245-.27.78-.067.192c-.03.091-.063.182-.094.273l-.173.498-.013.037-.065.189-.118.341-.066.189a4008.227 4008.227 0 01-.918 2.651l-.013.038-.026.075-.066.19-.117.34a10.37 10.37 0 00-.078.225l-.219.631-.149.432a.568.568 0 00-.013.038l-.05.146-.136.391c-.32.933-.32.933-.575 1.239-.159-.019-.312-.051-.466-.083l-.087-.018-.186-.039-.3-.062-.05-.011-.106-.021-.16-.033-1.098-.226-.464-.095-.05-.01-1.008-.207-.08-.016-.282-.058-1.074-.221-.05-.01-1.489-.306-1.287-.264-.04-.008-.205-.042-.04-.009a2.498 2.498 0 01-.085-.017l-1.08-.222-.05-.01-1.49-.305-1.447-.297-.163-.034-.042-.009-.732-.15-.055-.011-.53-.109a11.306 11.306 0 00-.288-.059l-.446-.092a1.574 1.574 0 01.034-.359c.061-.363.193-.717.316-1.07l.074-.211.12-.341a49.095 49.095 0 01.161-.467l.03-.086.1-.291.323-.93.047-.136.324-.934.026-.075.013-.037.051-.149.025-.073.311-.897.015-.042c.04-.114.08-.227.118-.341l.332-.956c.004-.013.01-.026.013-.039l.11-.315c.143-.418.29-.836.435-1.254a247.234 247.234 0 00.594-1.722l.023-.065.125-.363.046-.132c.148-.432.148-.432.283-.589l.021-.025c.228-.265.591-.441.992-.511.232-.035.464-.028.694.01l.053.008.163.027.052.008.38.063.124.021.3.05.245.041.036.006.072.012 1.55.26.038.006.763.128a16.42 16.42 0 00.395.067l.597.099.044.008.195.032.066.01.056.01c.042.007.042.007.074.02l.005-.025c.015-.049.04-.093.065-.139l.017-.03.037-.066.058-.106.061-.112.232-.423.02-.038.08-.147.103-.189.055-.101.035-.065a.585.585 0 00.004-.62 2.906 2.906 0 00-.78-.913c-.02-.016-.04-.033-.062-.049a1.275 1.275 0 00-.169-.113c-.058-.035-.095-.06-.116-.116-.003-.036-.003-.066.017-.099.054-.042.078-.06.155-.068a1.453 1.453 0 01.102.002l.077.001c.068.002.135.003.203.003h.04A4.28 4.28 0 0015.72.235l.033-.024c.067-.049.124-.103.18-.16.068-.061.141-.062.24-.051zm-9.99 8.828l-.035.026c-.095.077-.16.165-.224.259l-.023.034a.854.854 0 00-.138.411c0 .011 0 .022-.002.034a.981.981 0 00.373.782c.221.175.516.282.835.29.383.003.711-.107.985-.311.297-.24.437-.544.428-.872-.015-.271-.162-.51-.408-.702l-.037-.029c-.23-.171-.539-.248-.857-.246a1.581 1.581 0 00-.897.324zm9.537 1.994a1.07 1.07 0 00-.37.912c.037.267.217.52.484.693.288.167.615.227.973.194.24-.03.464-.119.641-.244l.044-.03c.296-.213.456-.503.473-.813-.003-.31-.144-.582-.425-.806a1.453 1.453 0 00-.876-.258 1.592 1.592 0 00-.944.352zm-7.01.091a.589.589 0 00-.126.266c0 .005 0 .005-.008.031a1.662 1.662 0 00.021.88c.05.163.113.319.2.473l.015.026c.155.273.378.514.647.728l.04.032c.454.362 1.13.601 1.787.614.722.009 1.417-.149 1.966-.523l.037-.024c.223-.15.42-.31.592-.495l.022-.023c.21-.223.497-.555.471-.841a.476.476 0 00-.256-.327.8.8 0 00-.456-.065.62.62 0 00-.378.218c-.03.048-.057.097-.084.146a1.825 1.825 0 01-.416.521l-.034.031a1.834 1.834 0 01-.499.315l-.028.013a2.06 2.06 0 01-1.228.118 1.774 1.774 0 01-.6-.254l-.05-.031a1.481 1.481 0 01-.646-1.071 1.188 1.188 0 01.053-.4.374.374 0 00-.076-.336.707.707 0 00-.367-.199c-.246-.021-.434.036-.599.177zM4.39 5.96a.98.98 0 01-.057.224l-.032.091-.023.066-.062.18-.065.19-.391 1.124-.382 1.101-.109.317-.014.04-.268.773-.03.09-.211.602-.021.062-.03.085-.009.026c-.021.058-.021.058-.039.086a3.686 3.686 0 01-1.514-.605c-.032-.023-.066-.045-.1-.067-.149-.1-.272-.22-.387-.342l-.02-.02C.099 9.422-.093 8.718.04 8.04c.101-.465.358-.91.767-1.265l.034-.03c.163-.142.334-.266.531-.378l.042-.024c.82-.453 2.003-.655 2.976-.384zM21.37 9.447c.421.072.828.197 1.177.395l.026.015a3.6 3.6 0 01.31.195c.031.022.063.043.095.063.062.04.114.087.167.135l.04.035a2.44 2.44 0 01.756 1.173c.051.178.066.353.065.534v.032a1.974 1.974 0 01-.167.798l-.015.032a2.234 2.234 0 01-.42.636l-.02.02a3.195 3.195 0 01-.772.598l-.05.029a4.159 4.159 0 01-1.322.429c-.007 0-.007 0-.04.006a4.131 4.131 0 01-1.25-.006l-.047-.008-.144-.023-.044-.008-.04-.007-.037-.007-.028-.01c-.019-.043-.012-.06.004-.103l.015-.043.017-.046.018-.05.038-.107.063-.173.066-.185.231-.651.07-.2c.155-.437.31-.873.462-1.31l.29-.821.057-.162.14-.395.061-.174c.02-.055.04-.11.058-.164l.021-.06.148-.412zM2.21 17.286c.077.007.149.018.223.033l.03.007.105.021.074.015.202.041.215.044.496.102c.043.01.085.017.128.026l.934.192a1812.994 1812.994 0 011.57.323c.217.044.434.09.65.133l.445.092.049.01 1.432.293 1.329.273.04.008.206.042.04.01.085.016 1.08.222.05.011c.483.1.965.197 1.447.296l1.779.365.395.082.274.056.108.022.145.03.043.01c.094.018.094.018.13.032-.026.053-.08.087-.133.124l-.031.022a4.534 4.534 0 01-.37.23c-.116.07-.237.135-.358.2-.091.048-.181.097-.27.147-.115.064-.231.127-.348.19a22.41 22.41 0 00-.265.144c-.115.064-.232.126-.348.19a13.69 13.69 0 00-.266.144l-.306.167c-.117.062-.232.125-.346.188a40.57 40.57 0 01-.415.226c-.128.07-.256.138-.382.21l-.351.19c-.09.047-.178.095-.266.144a23.29 23.29 0 01-.347.19c-.09.046-.178.095-.266.144l-.307.167c-.104.055-.207.111-.31.168-.114.064-.23.127-.345.19l-.151.081a3.557 3.557 0 01-1.243.426l-.064.01a3.695 3.695 0 01-2.115-.393 2.663 2.663 0 01-.202-.127c-.44-.297-.672-.673-.913-1.072l-.065-.107-.117-.194-.165-.275c-.006-.01-.012-.02-.02-.03-.132-.223-.266-.444-.4-.666a27.12 27.12 0 01-.173-.286l-.096-.158-.038-.063a.537.537 0 01-.02-.032l-.996-1.648-.038-.063-.096-.158-.196-.324c-.363-.594-.363-.594-.495-.898l-.011-.025c-.06-.136-.06-.136-.06-.18z" fill="#6366F1"></path></svg>

<svg fill="#6366F1" fill-rule="evenodd" height="1em" style="flex:none;line-height:1" viewBox="0 0 24 24" width="1em" xmlns="http://www.w3.org/2000/svg"><title>SpeedAI</title><path d="M16.172,0 C16.222,0.024 16.222,0.024 16.253,0.062 C16.275,0.159 16.269,0.258 16.267,0.356 C16.265,0.537 16.272,0.712 16.317,0.89 C16.32,0.901 16.323,0.912 16.326,0.923 C16.45,1.419 16.749,1.889 17.201,2.258 C17.233,2.284 17.263,2.311 17.293,2.338 C17.38,2.415 17.482,2.483 17.586,2.546 C17.636,2.579 17.64,2.6 17.647,2.65 C17.639,2.71 17.616,2.727 17.56,2.77 C17.509,2.789 17.453,2.783 17.397,2.782 C17.37,2.782 17.343,2.781 17.315,2.781 C17.308,2.781 17.308,2.781 17.272,2.781 C17.009,2.779 16.754,2.782 16.495,2.819 C16.48,2.821 16.465,2.823 16.45,2.826 C16.097,2.878 15.632,2.955 15.365,3.153 C15.357,3.159 15.348,3.165 15.34,3.171 C15.281,3.216 15.245,3.271 15.209,3.327 C15.203,3.336 15.197,3.345 15.192,3.354 C15.133,3.446 15.081,3.54 15.031,3.635 C15.014,3.667 14.996,3.699 14.979,3.731 C14.961,3.766 14.942,3.8 14.924,3.835 C14.854,3.964 14.784,4.094 14.714,4.223 C14.693,4.261 14.672,4.299 14.651,4.337 C14.584,4.462 14.515,4.587 14.445,4.711 C14.451,4.712 14.451,4.712 14.481,4.715 C14.593,4.729 14.704,4.745 14.814,4.764 C14.831,4.767 14.847,4.77 14.864,4.773 C14.919,4.782 14.974,4.791 15.029,4.8 C15.069,4.807 15.109,4.814 15.148,4.82 C15.234,4.835 15.32,4.849 15.405,4.864 C15.543,4.887 15.68,4.91 15.817,4.933 C15.84,4.937 15.864,4.941 15.887,4.945 C15.923,4.951 15.959,4.957 15.995,4.963 C16.068,4.975 16.141,4.987 16.215,5 C16.63,5.069 17.046,5.139 17.461,5.208 C17.511,5.217 17.561,5.225 17.611,5.233 C17.617,5.234 17.617,5.234 17.648,5.24 C17.832,5.27 18.016,5.301 18.2,5.332 C18.212,5.334 18.224,5.336 18.236,5.338 C18.341,5.356 18.446,5.373 18.552,5.391 C18.786,5.43 19.02,5.469 19.254,5.508 C19.367,5.527 19.481,5.545 19.594,5.564 C19.654,5.574 19.713,5.584 19.773,5.594 C20.173,5.659 20.487,5.739 20.788,5.96 C20.799,5.967 20.81,5.975 20.821,5.982 C21.091,6.173 21.245,6.469 21.262,6.747 C21.262,6.772 21.263,6.796 21.263,6.821 C21.263,6.832 21.264,6.843 21.264,6.854 C21.261,7.046 21.185,7.233 21.12,7.417 C21.111,7.442 21.102,7.467 21.093,7.492 C21.075,7.545 21.056,7.598 21.037,7.651 C20.993,7.778 20.948,7.905 20.904,8.032 C20.889,8.075 20.873,8.118 20.858,8.161 C20.773,8.404 20.69,8.647 20.607,8.89 C20.576,8.98 20.545,9.07 20.514,9.161 C20.511,9.171 20.507,9.18 20.504,9.191 C20.426,9.418 20.348,9.645 20.269,9.872 C20.267,9.877 20.267,9.877 20.258,9.902 C20.23,9.983 20.201,10.065 20.173,10.147 C20.083,10.407 19.993,10.667 19.903,10.927 C19.88,10.991 19.858,11.055 19.836,11.119 C19.805,11.21 19.773,11.301 19.742,11.392 C19.684,11.558 19.627,11.724 19.569,11.89 C19.567,11.896 19.567,11.896 19.556,11.927 C19.534,11.99 19.513,12.053 19.491,12.116 C19.452,12.23 19.412,12.343 19.373,12.457 C19.351,12.52 19.329,12.583 19.307,12.646 C19.299,12.671 19.29,12.697 19.281,12.722 C18.984,13.58 18.687,14.438 18.389,15.297 C18.385,15.309 18.381,15.322 18.376,15.335 C18.368,15.36 18.359,15.385 18.35,15.41 C18.328,15.473 18.306,15.537 18.284,15.6 C18.245,15.713 18.206,15.826 18.167,15.94 C18.145,16.002 18.123,16.065 18.102,16.128 C18.097,16.14 18.093,16.152 18.089,16.165 C18.016,16.376 17.943,16.586 17.87,16.796 C17.82,16.94 17.771,17.084 17.721,17.228 C17.716,17.241 17.712,17.253 17.708,17.266 C17.691,17.315 17.674,17.363 17.657,17.412 C17.612,17.542 17.567,17.672 17.522,17.803 C17.202,18.736 17.202,18.736 16.947,19.042 C16.788,19.023 16.635,18.991 16.481,18.959 C16.452,18.953 16.423,18.947 16.394,18.941 C16.332,18.928 16.27,18.915 16.208,18.902 C16.108,18.881 16.008,18.861 15.908,18.84 C15.9,18.838 15.9,18.838 15.857,18.829 C15.822,18.822 15.787,18.815 15.752,18.808 C15.699,18.797 15.646,18.786 15.592,18.775 C15.226,18.699 14.86,18.624 14.494,18.549 C14.339,18.518 14.185,18.486 14.03,18.454 C14.013,18.451 13.997,18.447 13.979,18.444 C13.644,18.375 13.308,18.306 12.972,18.237 C12.946,18.232 12.919,18.226 12.892,18.221 C12.798,18.201 12.704,18.182 12.61,18.163 C12.252,18.089 11.894,18.016 11.536,17.942 C11.519,17.939 11.503,17.935 11.486,17.932 C10.99,17.83 10.493,17.728 9.997,17.626 C9.568,17.539 9.139,17.451 8.71,17.362 C8.697,17.36 8.684,17.357 8.67,17.354 C8.602,17.34 8.533,17.326 8.465,17.312 C8.458,17.311 8.458,17.311 8.424,17.303 C8.396,17.298 8.368,17.292 8.34,17.286 C7.98,17.212 7.619,17.138 7.259,17.064 C7.242,17.061 7.226,17.057 7.209,17.054 C6.713,16.952 6.216,16.85 5.72,16.749 C5.237,16.65 4.755,16.551 4.273,16.452 C4.219,16.44 4.164,16.429 4.11,16.418 C4.096,16.415 4.082,16.412 4.068,16.409 C3.824,16.359 3.58,16.309 3.336,16.259 C3.327,16.257 3.327,16.257 3.281,16.248 C3.104,16.211 2.927,16.175 2.75,16.139 C2.685,16.125 2.62,16.112 2.554,16.099 C2.524,16.092 2.494,16.086 2.463,16.08 C2.315,16.049 2.166,16.019 2.017,15.988 C2.014,15.881 2.026,15.779 2.044,15.674 C2.046,15.659 2.048,15.645 2.051,15.629 C2.112,15.266 2.244,14.912 2.367,14.559 C2.392,14.489 2.416,14.418 2.441,14.348 C2.48,14.234 2.52,14.12 2.56,14.007 C2.607,13.87 2.654,13.734 2.702,13.598 C2.708,13.578 2.715,13.559 2.722,13.54 C2.732,13.511 2.742,13.482 2.752,13.454 C2.785,13.357 2.819,13.26 2.852,13.163 C2.96,12.853 3.068,12.543 3.175,12.233 C3.191,12.188 3.206,12.143 3.222,12.097 C3.33,11.786 3.438,11.475 3.546,11.163 C3.554,11.138 3.563,11.113 3.572,11.088 C3.574,11.082 3.574,11.082 3.585,11.051 C3.602,11.001 3.619,10.952 3.636,10.902 C3.644,10.878 3.653,10.853 3.661,10.829 C3.765,10.53 3.868,10.231 3.972,9.932 C3.977,9.918 3.982,9.904 3.987,9.89 C4.026,9.776 4.066,9.663 4.105,9.549 C4.216,9.231 4.327,8.912 4.437,8.593 C4.441,8.58 4.446,8.567 4.45,8.554 C4.487,8.449 4.523,8.344 4.559,8.239 C4.703,7.821 4.849,7.403 4.995,6.985 C5.125,6.612 5.254,6.239 5.382,5.866 C5.451,5.665 5.52,5.464 5.589,5.263 C5.597,5.241 5.604,5.22 5.612,5.198 C5.653,5.077 5.695,4.956 5.737,4.835 C5.752,4.791 5.768,4.747 5.783,4.703 C5.931,4.271 5.931,4.271 6.066,4.114 C6.073,4.105 6.079,4.097 6.087,4.089 C6.315,3.824 6.678,3.648 7.079,3.578 C7.311,3.543 7.543,3.55 7.773,3.588 C7.79,3.591 7.808,3.593 7.826,3.596 C7.88,3.605 7.935,3.614 7.989,3.623 C8.006,3.626 8.024,3.628 8.041,3.631 C8.168,3.652 8.294,3.673 8.42,3.694 C8.462,3.701 8.504,3.708 8.545,3.715 C8.645,3.732 8.745,3.749 8.845,3.765 C8.927,3.779 9.009,3.793 9.09,3.806 C9.102,3.808 9.114,3.81 9.126,3.812 C9.15,3.816 9.174,3.82 9.198,3.824 C9.714,3.911 10.231,3.997 10.748,4.084 C10.761,4.086 10.773,4.088 10.786,4.09 C11.04,4.133 11.294,4.176 11.549,4.218 C11.627,4.232 11.705,4.245 11.784,4.258 C11.837,4.267 11.89,4.276 11.944,4.285 C12.143,4.318 12.342,4.352 12.541,4.384 C12.556,4.387 12.57,4.389 12.585,4.392 C12.65,4.402 12.715,4.413 12.78,4.424 C12.802,4.427 12.824,4.431 12.846,4.434 C12.864,4.437 12.883,4.44 12.902,4.444 C12.944,4.451 12.944,4.451 12.976,4.464 C12.977,4.46 12.977,4.46 12.981,4.439 C12.996,4.39 13.021,4.346 13.046,4.3 C13.052,4.29 13.057,4.28 13.063,4.27 C13.075,4.248 13.087,4.226 13.1,4.204 C13.119,4.169 13.138,4.133 13.158,4.098 C13.178,4.061 13.199,4.024 13.219,3.986 C13.297,3.845 13.374,3.704 13.451,3.563 C13.457,3.55 13.464,3.538 13.471,3.525 C13.498,3.476 13.524,3.427 13.551,3.378 C13.585,3.315 13.619,3.252 13.654,3.189 C13.672,3.156 13.69,3.122 13.709,3.088 C13.72,3.067 13.732,3.045 13.744,3.023 C13.864,2.803 13.865,2.626 13.748,2.403 C13.563,2.062 13.307,1.754 12.968,1.49 C12.947,1.474 12.927,1.457 12.906,1.441 C12.853,1.399 12.799,1.363 12.737,1.328 C12.679,1.293 12.642,1.268 12.621,1.212 C12.618,1.176 12.618,1.146 12.638,1.113 C12.692,1.071 12.716,1.053 12.793,1.045 C12.815,1.045 12.837,1.045 12.859,1.046 C12.865,1.046 12.865,1.046 12.895,1.047 C12.921,1.047 12.946,1.048 12.972,1.048 C13.04,1.05 13.107,1.051 13.175,1.051 C13.188,1.051 13.202,1.051 13.215,1.051 C14.166,1.055 15.04,0.725 15.72,0.235 C15.726,0.231 15.726,0.231 15.753,0.211 C15.82,0.162 15.877,0.108 15.933,0.051 C16.001,-0.01 16.074,-0.011 16.172,0 M6.182,8.828 C6.17,8.837 6.159,8.845 6.147,8.854 C6.052,8.931 5.987,9.019 5.923,9.113 C5.915,9.124 5.908,9.136 5.9,9.147 C5.819,9.272 5.769,9.419 5.762,9.558 C5.761,9.569 5.761,9.58 5.76,9.592 C5.752,9.88 5.879,10.16 6.133,10.374 C6.354,10.549 6.649,10.656 6.968,10.664 C7.351,10.667 7.679,10.557 7.953,10.353 C8.25,10.113 8.39,9.809 8.381,9.481 C8.366,9.21 8.219,8.971 7.973,8.779 C7.961,8.769 7.949,8.76 7.936,8.75 C7.706,8.579 7.397,8.502 7.079,8.504 C6.726,8.52 6.431,8.641 6.182,8.828 M15.719,10.822 C15.432,11.084 15.322,11.397 15.349,11.734 C15.386,12.001 15.566,12.254 15.833,12.427 C16.121,12.594 16.448,12.654 16.806,12.621 C17.045,12.591 17.27,12.502 17.447,12.377 C17.454,12.372 17.454,12.372 17.491,12.347 C17.787,12.134 17.947,11.844 17.964,11.534 C17.961,11.224 17.82,10.952 17.539,10.728 C17.302,10.553 16.99,10.467 16.663,10.47 C16.298,10.487 15.967,10.616 15.719,10.822 M8.709,10.913 C8.638,10.995 8.606,11.082 8.583,11.179 C8.582,11.184 8.582,11.184 8.575,11.21 C8.508,11.482 8.507,11.786 8.586,12.056 C8.59,12.067 8.593,12.078 8.596,12.09 C8.645,12.253 8.709,12.409 8.796,12.563 C8.799,12.567 8.799,12.567 8.811,12.589 C8.966,12.862 9.189,13.103 9.458,13.317 C9.464,13.322 9.464,13.322 9.497,13.349 C9.952,13.711 10.628,13.95 11.285,13.963 C12.007,13.972 12.702,13.814 13.251,13.44 C13.263,13.432 13.276,13.424 13.288,13.416 C13.511,13.266 13.708,13.106 13.88,12.921 C13.887,12.914 13.894,12.906 13.902,12.898 C14.112,12.675 14.399,12.343 14.373,12.057 C14.343,11.921 14.265,11.811 14.117,11.73 C13.975,11.663 13.826,11.644 13.661,11.665 C13.496,11.697 13.372,11.773 13.283,11.883 C13.252,11.931 13.226,11.98 13.199,12.029 C13.093,12.222 12.965,12.393 12.783,12.55 C12.772,12.56 12.76,12.571 12.749,12.581 C12.607,12.708 12.44,12.814 12.25,12.896 C12.241,12.9 12.232,12.905 12.222,12.909 C11.846,13.071 11.413,13.114 10.994,13.027 C10.771,12.976 10.569,12.891 10.394,12.773 C10.377,12.762 10.36,12.752 10.343,12.742 C9.954,12.477 9.733,12.062 9.698,11.671 C9.689,11.535 9.714,11.404 9.751,11.271 C9.782,11.152 9.756,11.041 9.675,10.935 C9.58,10.836 9.461,10.771 9.308,10.736 C9.062,10.715 8.874,10.772 8.709,10.913"/><path d="M4.39,5.96 C4.381,6.027 4.366,6.09 4.343,6.156 C4.339,6.165 4.336,6.174 4.333,6.184 C4.323,6.214 4.312,6.245 4.301,6.275 C4.294,6.297 4.286,6.319 4.278,6.341 C4.258,6.401 4.237,6.461 4.216,6.52 C4.194,6.584 4.173,6.647 4.151,6.711 C4.021,7.086 3.891,7.46 3.76,7.835 C3.632,8.202 3.505,8.569 3.378,8.936 C3.342,9.042 3.305,9.147 3.269,9.253 C3.266,9.26 3.266,9.26 3.255,9.292 C3.166,9.55 3.077,9.808 2.987,10.066 C2.977,10.096 2.967,10.125 2.957,10.155 C2.887,10.356 2.817,10.557 2.746,10.758 C2.739,10.779 2.732,10.799 2.725,10.82 C2.715,10.848 2.705,10.877 2.695,10.905 C2.692,10.914 2.689,10.922 2.686,10.931 C2.665,10.989 2.665,10.989 2.647,11.017 C2.077,10.92 1.563,10.715 1.133,10.412 C1.101,10.389 1.067,10.367 1.033,10.345 C0.884,10.245 0.761,10.125 0.646,10.003 C0.639,9.996 0.633,9.989 0.626,9.982 C0.099,9.422 -0.093,8.719 0.04,8.041 C0.141,7.576 0.398,7.13 0.807,6.776 C0.818,6.766 0.83,6.756 0.841,6.746 C1.004,6.604 1.175,6.48 1.372,6.368 C1.386,6.36 1.399,6.352 1.414,6.344 C2.234,5.891 3.417,5.689 4.39,5.96"/><path d="M21.369,9.447 C21.791,9.519 22.198,9.644 22.547,9.842 C22.556,9.847 22.564,9.852 22.573,9.857 C22.681,9.918 22.784,9.982 22.883,10.052 C22.914,10.074 22.946,10.095 22.978,10.115 C23.04,10.156 23.092,10.202 23.145,10.25 C23.158,10.262 23.171,10.273 23.184,10.285 C23.558,10.609 23.804,11.007 23.931,11.427 C23.935,11.437 23.938,11.447 23.941,11.458 C23.992,11.636 24.007,11.811 24.006,11.992 C24.006,11.998 24.006,11.998 24.006,12.024 C24.005,12.3 23.953,12.56 23.839,12.822 C23.836,12.828 23.836,12.828 23.824,12.854 C23.723,13.08 23.587,13.297 23.403,13.49 C23.4,13.493 23.4,13.493 23.384,13.51 C23.167,13.734 22.911,13.947 22.612,14.108 C22.595,14.118 22.578,14.127 22.561,14.137 C22.163,14.354 21.714,14.488 21.24,14.566 C21.233,14.567 21.233,14.567 21.2,14.572 C20.805,14.635 20.343,14.63 19.949,14.566 C19.941,14.565 19.941,14.565 19.903,14.558 C19.855,14.551 19.807,14.543 19.759,14.535 C19.745,14.532 19.73,14.53 19.715,14.527 C19.701,14.525 19.688,14.522 19.674,14.52 C19.662,14.518 19.65,14.515 19.638,14.513 C19.628,14.51 19.619,14.507 19.61,14.504 C19.591,14.46 19.598,14.444 19.614,14.4 C19.619,14.386 19.624,14.372 19.629,14.357 C19.635,14.342 19.64,14.327 19.646,14.311 C19.652,14.294 19.658,14.278 19.664,14.261 C19.677,14.226 19.689,14.19 19.702,14.154 C19.723,14.096 19.744,14.039 19.765,13.981 C19.787,13.919 19.809,13.857 19.831,13.796 C19.909,13.579 19.985,13.362 20.062,13.145 C20.085,13.078 20.109,13.012 20.132,12.945 C20.287,12.508 20.441,12.072 20.594,11.635 C20.691,11.362 20.788,11.088 20.884,10.814 C20.903,10.76 20.922,10.706 20.941,10.652 C20.988,10.52 21.034,10.389 21.081,10.257 C21.101,10.199 21.122,10.141 21.142,10.083 C21.161,10.028 21.181,9.974 21.2,9.919 C21.207,9.899 21.214,9.879 21.221,9.86 C21.27,9.722 21.319,9.584 21.369,9.447"/><path d="M2.211,17.286 C2.287,17.293 2.359,17.304 2.433,17.319 C2.443,17.321 2.454,17.323 2.464,17.326 C2.499,17.333 2.533,17.34 2.568,17.347 C2.592,17.352 2.617,17.357 2.642,17.362 C2.709,17.376 2.776,17.389 2.844,17.403 C2.915,17.418 2.987,17.433 3.059,17.447 C3.225,17.481 3.39,17.515 3.555,17.549 C3.598,17.558 3.64,17.566 3.683,17.575 C3.994,17.639 4.306,17.703 4.617,17.767 C4.959,17.837 5.3,17.907 5.641,17.977 C5.773,18.005 5.905,18.032 6.038,18.059 C6.088,18.069 6.138,18.079 6.188,18.09 C6.404,18.134 6.621,18.179 6.837,18.223 C6.985,18.254 7.134,18.284 7.282,18.315 C7.298,18.318 7.315,18.321 7.331,18.325 C7.808,18.423 8.286,18.52 8.763,18.618 C9.206,18.709 9.649,18.8 10.092,18.891 C10.106,18.894 10.119,18.897 10.133,18.899 C10.201,18.913 10.27,18.927 10.338,18.941 C10.351,18.944 10.365,18.947 10.379,18.95 C10.407,18.956 10.435,18.961 10.463,18.967 C10.823,19.041 11.184,19.115 11.544,19.189 C11.561,19.193 11.577,19.196 11.594,19.2 C12.076,19.299 12.558,19.397 13.04,19.496 C13.633,19.618 14.226,19.739 14.819,19.861 C14.951,19.888 15.082,19.915 15.214,19.943 C15.305,19.961 15.397,19.98 15.488,19.999 C15.524,20.006 15.56,20.014 15.596,20.021 C15.645,20.031 15.693,20.041 15.741,20.051 C15.755,20.054 15.769,20.057 15.784,20.06 C15.878,20.079 15.878,20.079 15.914,20.093 C15.888,20.146 15.834,20.18 15.781,20.217 C15.771,20.224 15.761,20.231 15.75,20.239 C15.656,20.304 15.558,20.364 15.457,20.423 C15.431,20.438 15.406,20.453 15.38,20.469 C15.264,20.539 15.143,20.604 15.022,20.669 C14.931,20.717 14.841,20.766 14.752,20.816 C14.637,20.88 14.521,20.943 14.404,21.005 C14.315,21.053 14.227,21.101 14.139,21.15 C14.024,21.214 13.907,21.276 13.791,21.339 C13.702,21.386 13.613,21.435 13.525,21.484 C13.424,21.54 13.321,21.596 13.219,21.651 C13.102,21.713 12.987,21.776 12.873,21.839 C12.736,21.915 12.597,21.99 12.458,22.065 C12.33,22.134 12.202,22.203 12.076,22.274 C11.96,22.338 11.843,22.401 11.725,22.464 C11.636,22.512 11.547,22.56 11.459,22.609 C11.344,22.673 11.228,22.736 11.112,22.798 C11.022,22.845 10.934,22.894 10.846,22.943 C10.745,22.999 10.642,23.055 10.539,23.11 C10.435,23.165 10.332,23.221 10.23,23.278 C10.115,23.342 10,23.405 9.884,23.467 C9.834,23.494 9.783,23.522 9.733,23.549 C9.352,23.758 8.954,23.91 8.49,23.975 C8.479,23.977 8.479,23.977 8.426,23.984 C7.691,24.072 6.918,23.914 6.311,23.592 C6.249,23.557 6.191,23.52 6.133,23.481 C6.125,23.475 6.117,23.47 6.109,23.465 C5.67,23.168 5.437,22.792 5.196,22.393 C5.174,22.357 5.153,22.322 5.131,22.286 C5.092,22.221 5.053,22.157 5.014,22.092 C4.959,22 4.904,21.908 4.849,21.817 C4.843,21.807 4.837,21.796 4.83,21.786 C4.697,21.564 4.563,21.343 4.429,21.121 C4.371,21.026 4.313,20.931 4.256,20.835 C4.224,20.783 4.192,20.73 4.16,20.677 C4.147,20.656 4.135,20.635 4.122,20.614 C4.115,20.603 4.109,20.593 4.103,20.582 C3.125,18.966 3.125,18.966 3.106,18.934 C3.093,18.913 3.08,18.892 3.068,18.871 C3.036,18.818 3.004,18.766 2.972,18.713 C2.907,18.605 2.841,18.497 2.776,18.389 C2.413,17.795 2.413,17.795 2.281,17.491 C2.279,17.487 2.279,17.487 2.27,17.466 C2.211,17.33 2.211,17.33 2.211,17.286"/></svg>
